X: 14275
T: Gaelic Farmer, The
R: waltz
M: 3/4
K: Gmajor
dc|:B>AG B>AG|B/(d/d2 d2)d|e>f ed cB|(A3 A2) d/c/|
B>AG B>AG|B (d2 d2) d|e>f gf af|g>e dB Gd:|
|:g>f gg bg|f>ef d2 e/f/|g>f ed cB|(A3A) dc|
B>AG B>AG|B (d2 d2) d|e>f gf af|(g3 g2) d:|

